modules/hawcons-stroke/icons/icon-78-document-error.svg

<?xml version="1.0" encoding="UTF-8" standalone="no"?>
<svg width="32px" height="32px" viewBox="0 0 32 32" version="1.1" xmlns="http://www.w3.org/2000/svg" xmlns:xlink="http://www.w3.org/1999/xlink" xmlns:sketch="http://www.bohemiancoding.com/sketch/ns">
    <!-- Generator: Sketch 3.0.3 (7891) - http://www.bohemiancoding.com/sketch -->
    <title>icon 78 document error</title>
    <desc>Created with Sketch.</desc>
    <defs></defs>
    <g id="Page-1" stroke="none" stroke-width="1" fill="none" fill-rule="evenodd" sketch:type="MSPage">
        <g id="icon-78-document-error" sketch:type="MSArtboardGroup" fill="#929292">
            <path d="M24,25.9230769 L24,9 L24,9 L18,2 L7.00276013,2 C5.89666625,2 5,2.89833832 5,4.00732994 L5,26.9926701 C5,28.1012878 5.89092539,29 6.99742191,29 L15.1818182,29 L14,31 L27,31 L24,25.9230769 L24,25.9230769 Z M15.7727273,28 L6.9999602,28 C6.45470893,28 6,27.5543187 6,27.004543 L6,3.99545703 C6,3.45526288 6.44573523,3 6.9955775,3 L17,3 L17,7.99408095 C17,9.11344516 17.8944962,10 18.9979131,10 L23,10 L23,24.2307692 L20.5,20 L15.7727273,28 L15.7727273,28 L15.7727273,28 Z M18,3.5 L18,7.99121523 C18,8.54835167 18.4506511,9 18.9967388,9 L22.6999512,9 L18,3.5 L18,3.5 Z M20.5,22 L25.25,30 L15.75,30 L20.5,22 L20.5,22 Z M20,24 L20,27 L21,27 L21,24 L20,24 L20,24 Z M20,28 L20,29 L21,29 L21,28 L20,28 L20,28 Z" id="document-error" sketch:type="MSShapeGroup"></path>
        </g>
    </g>
</svg>

<svg width="32" height="32" viewBox="0 0 32 32" xmlns="http://www.w3.org/2000/svg"><path d="M24 25.923V9l-6-7H7.003A2.005 2.005 0 0 0 5 4.007v22.986A2 2 0 0 0 6.997 29h8.185L14 31h13l-3-5.077zM15.773 28H7c-.545 0-1-.446-1-.995V3.995c0-.54.446-.995.996-.995H17v4.994c0 1.12.894 2.006 1.998 2.006H23v14.23L20.5 20l-4.727 8zM18 3.5v4.491c0 .557.45 1.009.997 1.009H22.7L18 3.5zM20.5 22l4.75 8h-9.5l4.75-8zm-.5 2v3h1v-3h-1zm0 4v1h1v-1h-1z" fill="#929292" fill-rule="evenodd"/></svg>
